X:348
T:The Rakes of Newcastle West
B:Joyce, P. W.; "Old Irish Folk Music and Songs"
N:See #347 for history
R:jig
A:Limerick
O:Irish
L:1/8
M:6/8
K:C
B2 c AGF|DGG AGA|B3 cAc|d2 g fdc|
B2 c AGF|DGG AGA|Bcd/B/ cAF|AGG G2 z:|
BAB cBc|d2 g fde|f3 g3|a2 g fdc|
BAB cBc|d2 g fdc|Bcd/B/ cAF|AGG G2 z|
BAB cBc|d2 g fde|f3 g3|a2 g fdc|
dgg agg|a2 g fdc|Bcd/B/ cAF|AGG G2 z||

